X: 33
T: This Is My Love, Do You Like Her?
Z: Bazza
S: https://thesession.org/tunes/6#setting49088
R: jig
M: 6/8
L: 1/8
K: Ador
|:"Am"ABA AGE|c2 B c2 d|"C"e3 edB|"Em"g3 e2 d|
"D"def "Em"gfe|"G"dBA GAB|"Am"cBA "G"dBG|1 "Am"A3 A2 G:|2 "Am"A3 A2 e||
|:"Am"a3 aba|"Em"g3 geg|"F"a2 a aba|"C"g3 e2 d|
"D"def "Em"gfe|"G"dBA GAB|"Am"cBA "G"dBG|1 "Am"A3 A2 e:|2 "Am"A3 A2 z||

